Papirus-GTK/24x24/apps/tormessenger.svg

<?xml version="1.0" encoding="UTF-8" standalone="no"?>
<svg
   xmlns:dc="http://purl.org/dc/elements/1.1/"
   xmlns:cc="http://creativecommons.org/ns#"
   xmlns:rdf="http://www.w3.org/1999/02/22-rdf-syntax-ns#"
   xmlns:svg="http://www.w3.org/2000/svg"
   xmlns="http://www.w3.org/2000/svg"
   id="svg2"
   height="24"
   width="24"
   version="1.1"
   viewBox="0 0 24 24">
  <defs
     id="defs11" />
  <metadata
     id="metadata51">
    <rdf:RDF>
      <cc:Work
         rdf:about="">
        <dc:format>image/svg+xml</dc:format>
        <dc:type
           rdf:resource="http://purl.org/dc/dcmitype/StillImage" />
        <dc:title></dc:title>
      </cc:Work>
    </rdf:RDF>
  </metadata>
  <path
     id="path4140"
     d="M 12 1 A 10 10 0 0 0 2 11 A 10 10 0 0 0 2.0078125 11.193359 C 2.0068831 11.245832 2 11.296929 2 11.349609 C 2.0000505 11.380689 2.0035262 11.410356 2.0039062 11.441406 C 2.0028562 11.460406 2.0009 11.481 2 11.5 C 2.0045715 14.223917 3.3338959 16.781762 5.4765625 18.572266 A 10 10 0 0 0 5.7246094 18.775391 C 5.818059 18.848717 5.9036953 18.9296 6 19 L 6 22 L 8.6523438 20.439453 C 9.0601158 20.578794 9.4785512 20.683756 9.9003906 20.771484 A 10 10 0 0 0 10.103516 20.814453 C 10.333866 20.8576 10.565782 20.890325 10.798828 20.917969 A 10 10 0 0 0 11.064453 20.953125 C 11.375053 20.981956 11.686971 20.998903 12 21 A 10 10 0 0 0 12.820312 20.960938 C 13.07554 20.940893 13.326595 20.909045 13.576172 20.871094 A 10 10 0 0 0 13.728516 20.849609 C 18.239056 20.095826 21.733208 16.471862 21.974609 11.984375 C 21.982609 11.87381 21.988377 11.763924 21.992188 11.652344 C 21.995188 11.601344 21.998 11.551001 22 11.5 C 21.9995 11.4795 21.999047 11.458 21.998047 11.4375 C 21.998547 11.4075 22 11.379609 22 11.349609 C 22 11.290384 21.991408 11.232794 21.990234 11.173828 A 10 10 0 0 0 22 11 A 10 10 0 0 0 12 1 z "
     style="opacity:1;fill:#bad632;fill-opacity:1;stroke:none;stroke-width:4;stroke-linecap:round;stroke-linejoin:round;stroke-miterlimit:4;stroke-dasharray:none;stroke-opacity:1" />
  <path
     style="opacity:0.2"
     id="path4139"
     d="m 21.99114,11.673987 c -0.0038,0.104295 -0.0092,0.208086 -0.0166,0.311526 -0.271501,5.047018 -4.655016,9.008532 -9.974535,9.014532 -1.141404,-0.004 -2.273608,-0.193571 -3.3476617,-0.560552 l -2.6525093,1.560505 0,0.500002 2.6523593,-1.560555 c 1.0740037,0.367001 2.2060077,0.556501 3.3475117,0.560501 5.319519,-0.006 9.703034,-3.967513 9.974535,-9.014531 0.008,-0.110565 0.01377,-0.221431 0.01758,-0.333011 0.003,-0.051 0.006,-0.101501 0.008,-0.152501 -5e-4,-0.0205 -0.0015,-0.041 -0.002,-0.0615 5e-4,-0.03 0.002,-0.059 0.002,-0.089 0,-0.05927 -0.0076,-0.116771 -0.0088,-0.175781 z m -19.98407,0.026 c -8.5e-4,0.0505 -0.00685,0.0995 -0.00685,0.149501 5.05e-5,0.03108 0.00255,0.06173 0.00293,0.09278 -0.00105,0.019 -0.00205,0.0385 -0.00295,0.0575 0.00494,2.943511 1.5445054,5.70502 4.000014,7.500026 l 0,-0.500001 C 3.6005556,17.245282 2.0798003,14.567772 2.00705,11.699762 Z" />
  <path
     style="opacity:0.1;fill:#000000;fill-opacity:1;stroke:none;stroke-width:4;stroke-linecap:round;stroke-linejoin:round;stroke-miterlimit:4;stroke-dasharray:none;stroke-opacity:1"
     d="m 12,4.5 a 7,7 0 0 0 -7,7 7,7 0 0 0 7,7 l 0,1.5 c 0.684592,-7.72e-4 1.353183,-0.06963 2,-0.195312 l 0,-1.603516 A 7,7 0 0 0 19,11.5 7,7 0 0 0 12,4.5 Z"
     id="path4279" />
  <path
     style="opacity:1;fill:#578418;fill-opacity:1;stroke:none;stroke-width:4;stroke-linecap:round;stroke-linejoin:round;stroke-miterlimit:4;stroke-dasharray:none;stroke-opacity:1"
     d="M 12 4 C 8.1340068 4 5 7.1340068 5 11 C 5 14.865993 8.1340068 18 12 18 L 12 21 C 12.684592 20.999228 13.353183 20.930366 14 20.804688 L 14 17.701172 C 16.964138 16.817439 18.996892 14.093071 19 11 C 19 7.1340068 15.865993 4 12 4 z "
     id="path4259" />
  <path
     style="opacity:0.1;fill:#000000;fill-opacity:1;stroke:none;stroke-width:4;stroke-linecap:round;stroke-linejoin:round;stroke-miterlimit:4;stroke-dasharray:none;stroke-opacity:1"
     d="m 12,7.5 a 4,4 0 0 0 -4,4 l 0,5.234375 a 7,7 0 0 0 2,0.966797 l 0,-2.742188 A 4,4 0 0 0 12,15.5 a 4,4 0 0 0 4,-4 4,4 0 0 0 -4,-4 z"
     id="path4271" />
  <path
     style="opacity:1;fill:#252920;fill-opacity:1;stroke:none;stroke-width:4;stroke-linecap:round;stroke-linejoin:round;stroke-miterlimit:4;stroke-dasharray:none;stroke-opacity:1"
     d="m 12,7 a 4,4 0 0 0 -4,4 l 0,5.734375 a 7,7 0 0 0 2,0.966797 l 0,-3.242188 A 4,4 0 0 0 12,15 4,4 0 0 0 16,11 4,4 0 0 0 12,7 Z"
     id="path4263" />
  <path
     id="path4143"
     d="M 12 1 A 10 10 0 0 0 2 11 A 10 10 0 0 0 2.0078125 11.193359 C 2.0068831 11.245832 2 11.296929 2 11.349609 C 2.0000376 11.37274 2.0008093 11.395251 2.0019531 11.417969 A 10 10 0 0 1 12 1.5 A 10 10 0 0 1 22 11.5 C 21.9995 11.4795 21.999047 11.458 21.998047 11.4375 C 21.998547 11.4075 22 11.379609 22 11.349609 C 22 11.290384 21.991408 11.232794 21.990234 11.173828 A 10 10 0 0 0 22 11 A 10 10 0 0 0 12 1 z "
     style="opacity:0.2;fill:#ffffff;fill-opacity:1;stroke:none;stroke-width:4;stroke-linecap:round;stroke-linejoin:round;stroke-miterlimit:4;stroke-dasharray:none;stroke-opacity:1" />
</svg>

<?xml version="1.0" encoding="UTF-8" standalone="no"?>
<svg id="svg2" xmlns:rdf="http://www.w3.org/1999/02/22-rdf-syntax-ns#" xmlns="http://www.w3.org/2000/svg" height="24" viewBox="0 0 24 24" width="24" version="1.1" xmlns:cc="http://creativecommons.org/ns#" xmlns:dc="http://purl.org/dc/elements/1.1/">
 <metadata id="metadata51">
  <rdf:RDF>
   <cc:Work rdf:about="">
    <dc:format>image/svg+xml</dc:format>
    <dc:type rdf:resource="http://purl.org/dc/dcmitype/StillImage"/>
    <dc:title/>
   </cc:Work>
  </rdf:RDF>
 </metadata>
 <path id="path4140" d="m12 1a10 10 0 0 0 -10 10 10 10 0 0 0 0.0078 0.193c-0.0009 0.053-0.0078 0.104-0.0078 0.157 0.0001 0.031 0.0035 0.06 0.0039 0.091-0.001 0.019-0.003 0.04-0.0039 0.059 0.0046 2.724 1.3339 5.282 3.4766 7.072a10 10 0 0 0 0.248 0.203c0.0935 0.074 0.1791 0.155 0.2754 0.225v3l2.6523-1.561c0.4078 0.14 0.8263 0.245 1.2481 0.332a10 10 0 0 0 0.2036 0.043c0.23 0.044 0.462 0.076 0.695 0.104a10 10 0 0 0 0.265 0.035c0.311 0.029 0.623 0.046 0.936 0.047a10 10 0 0 0 0.82 -0.039c0.256-0.02 0.507-0.052 0.756-0.09a10 10 0 0 0 0.153 -0.021c4.51-0.754 8.004-4.378 8.246-8.866 0.008-0.11 0.013-0.22 0.017-0.332 0.003-0.051 0.006-0.101 0.008-0.152 0-0.02-0.001-0.042-0.002-0.062 0.001-0.03 0.002-0.058 0.002-0.088 0-0.06-0.009-0.117-0.01-0.176a10 10 0 0 0 0.01 -0.174 10 10 0 0 0 -10 -10z" fill="#bad632"/>
 <path id="path4139" opacity=".2" d="m21.991 11.674c-0.0038 0.1043-0.0092 0.20809-0.0166 0.31153-0.2715 5.047-4.655 9.0085-9.9745 9.0145-1.1414-0.004-2.2736-0.19357-3.3477-0.56055l-2.6525 1.5605v0.5l2.6524-1.5606c1.074 0.367 2.206 0.5565 3.3475 0.5605 5.3195-0.006 9.703-3.9675 9.9745-9.0145 0.008-0.11056 0.01377-0.22143 0.01758-0.33301 0.003-0.051 0.006-0.1015 0.008-0.1525-0.0005-0.0205-0.0015-0.041-0.002-0.0615 0.0005-0.03 0.002-0.059 0.002-0.089 0-0.05927-0.0076-0.11677-0.0088-0.17578zm-19.984 0.026c-0.00085 0.0505-0.00685 0.0995-0.00685 0.1495 0.0000505 0.03108 0.00255 0.06173 0.00293 0.09278-0.00105 0.019-0.00205 0.0385-0.00295 0.0575 0.00494 2.9435 1.5445 5.705 4 7.5v-0.5c-2.3995-1.755-3.9203-4.432-3.9931-7.3z"/>
 <path id="path4279" opacity=".1" d="m12 4.5a7 7 0 0 0 -7 7 7 7 0 0 0 7 7v1.5c0.68459-0.000772 1.3532-0.06963 2-0.19531v-1.6035a7 7 0 0 0 5 -6.702 7 7 0 0 0 -7 -7z"/>
 <path id="path4259" d="m12 4c-3.866 0-7 3.134-7 7s3.134 7 7 7v3c0.685-0.001 1.353-0.07 2-0.195v-3.104c2.964-0.884 4.997-3.608 5-6.701 0-3.866-3.134-7-7-7z" fill="#578418"/>
 <path id="path4271" opacity=".1" d="m12 7.5a4 4 0 0 0 -4 4v5.2344a7 7 0 0 0 2 0.9668v-2.7422a4 4 0 0 0 2 0.541 4 4 0 0 0 4 -4 4 4 0 0 0 -4 -4z"/>
 <path id="path4263" d="m12 7a4 4 0 0 0 -4 4v5.7344a7 7 0 0 0 2 0.9668v-3.2422a4 4 0 0 0 2 0.541 4 4 0 0 0 4 -4 4 4 0 0 0 -4 -4z" fill="#252920"/>
 <path id="path4143" opacity=".2" d="m12 1a10 10 0 0 0 -10 10 10 10 0 0 0 0.0078 0.193c-0.0009 0.053-0.0078 0.104-0.0078 0.157 0 0.023 0.0008 0.045 0.002 0.068a10 10 0 0 1 9.998 -9.918 10 10 0 0 1 10 10c0-0.02-0.001-0.042-0.002-0.062 0.001-0.03 0.002-0.058 0.002-0.088 0-0.06-0.009-0.117-0.01-0.176a10 10 0 0 0 0.01 -0.174 10 10 0 0 0 -10 -10z" fill="#fff"/>
</svg>
